packages/katcn/src/icons/svg/arrow12-solid.svg

<svg width="24" height="25" viewBox="0 0 24 25" fill="none" xmlns="http://www.w3.org/2000/svg">
<path d="M20.5 2.29599H15.1C13.8 2.29599 13.1 3.89599 14.1 4.79599L16.1 6.79599L13 9.89599C12.6 10.296 12.6 10.896 13 11.296C13.2 11.496 13.5 11.596 13.7 11.596C13.9 11.596 14.2 11.496 14.4 11.296L17.5 8.19599L19.5 10.196C20.4 11.096 22 10.496 22 9.19599V3.79599C22 2.99599 21.3 2.29599 20.5 2.29599Z" fill="black"/>
<path d="M19.5 14.396L17.5 16.396L14.4 13.296C14 12.896 13.4 12.896 13 13.296C12.6 13.696 12.6 14.296 13 14.696L16.1 17.796L14.1 19.796C13.2 20.696 13.8 22.296 15.1 22.296H20.5C21.3 22.296 22 21.596 22 20.796V15.396C22 14.096 20.4 13.496 19.5 14.396Z" fill="black"/>
<path d="M9.6 13.296L6.5 16.396L4.5 14.396C3.6 13.496 2 14.096 2 15.396V20.796C2 21.596 2.7 22.296 3.5 22.296H8.9C10.2 22.296 10.9 20.696 9.9 19.796L7.9 17.796L11 14.696C11.4 14.296 11.4 13.696 11 13.296C10.6 12.896 10 12.896 9.6 13.296Z" fill="black"/>
<path d="M7.9 6.79599L9.9 4.79599C10.8 3.89599 10.2 2.29599 8.9 2.29599H3.5C2.7 2.29599 2 2.99599 2 3.79599V9.19599C2 10.496 3.6 11.196 4.5 10.196L6.5 8.19599L9.6 11.296C9.8 11.496 10.1 11.596 10.3 11.596C10.5 11.596 10.8 11.496 11 11.296C11.4 10.896 11.4 10.296 11 9.89599L7.9 6.79599Z" fill="black"/>
</svg>

<svg xmlns="http://www.w3.org/2000/svg" fill="none" viewBox="0 0 24 25"><path fill="#000" d="M20.5 2.296h-5.4c-1.3 0-2 1.6-1 2.5l2 2-3.1 3.1c-.4.4-.4 1 0 1.4.2.2.5.3.7.3s.5-.1.7-.3l3.1-3.1 2 2c.9.9 2.5.3 2.5-1v-5.4c0-.8-.7-1.5-1.5-1.5m-1 12.1-2 2-3.1-3.1c-.4-.4-1-.4-1.4 0s-.4 1 0 1.4l3.1 3.1-2 2c-.9.9-.3 2.5 1 2.5h5.4c.8 0 1.5-.7 1.5-1.5v-5.4c0-1.3-1.6-1.9-2.5-1m-9.9-1.1-3.1 3.1-2-2c-.9-.9-2.5-.3-2.5 1v5.4c0 .8.7 1.5 1.5 1.5h5.4c1.3 0 2-1.6 1-2.5l-2-2 3.1-3.1c.4-.4.4-1 0-1.4s-1-.4-1.4 0m-1.7-6.5 2-2c.9-.9.3-2.5-1-2.5H3.5c-.8 0-1.5.7-1.5 1.5v5.4c0 1.3 1.6 2 2.5 1l2-2 3.1 3.1c.2.2.5.3.7.3s.5-.1.7-.3c.4-.4.4-1 0-1.4z"/></svg>
